packages/components/src/common/svgs/IconSparkleLarge.svg

<svg width="24" height="24" viewBox="0 0 24 24" fill="none" xmlns="http://www.w3.org/2000/svg">
<g clip-path="url(#clip0_2875_216)">
<path d="M13.0367 5.92862C13.3828 4.85458 13.5558 4.31756 13.5887 4.26549C13.8123 3.9115 14.1877 3.9115 14.4113 4.26549C14.4442 4.31756 14.6172 4.85458 14.9633 5.92862C15.505 7.60999 16.3058 9.42501 17.4404 10.5596C18.575 11.6942 20.39 12.495 22.0714 13.0367C23.1454 13.3828 23.6824 13.5558 23.7345 13.5887C24.0885 13.8123 24.0885 14.1877 23.7345 14.4113C23.6824 14.4442 23.1454 14.6172 22.0714 14.9633C20.39 15.505 18.575 16.3058 17.4404 17.4404C16.3058 18.575 15.505 20.39 14.9633 22.0714C14.6172 23.1454 14.4442 23.6824 14.4113 23.7345C14.1877 24.0885 13.8123 24.0885 13.5887 23.7345C13.5558 23.6824 13.3828 23.1454 13.0367 22.0714C12.495 20.39 11.6942 18.575 10.5596 17.4404C9.42501 16.3058 7.60999 15.505 5.92862 14.9633C4.85458 14.6172 4.31756 14.4442 4.26549 14.4113C3.9115 14.1877 3.9115 13.8123 4.26549 13.5887C4.31756 13.5558 4.85458 13.3828 5.92862 13.0367C7.60999 12.495 9.42501 11.6942 10.5596 10.5596C11.6942 9.42501 12.495 7.60999 13.0367 5.92862Z" fill="#1A6CEF"/>
<path d="M4.06652 0.86788C4.22224 0.38456 4.3001 0.1429 4.31491 0.119471C4.41556 -0.0398236 4.58444 -0.0398236 4.68509 0.119471C4.6999 0.1429 4.77776 0.38456 4.93348 0.867879C5.17726 1.6245 5.53763 2.44125 6.04819 2.95181C6.55875 3.46237 7.3755 3.82274 8.13212 4.06652C8.61544 4.22224 8.8571 4.3001 8.88053 4.31491C9.03982 4.41556 9.03982 4.58444 8.88053 4.68509C8.8571 4.6999 8.61544 4.77776 8.13212 4.93348C7.3755 5.17726 6.55875 5.53763 6.04819 6.04819C5.53763 6.55875 5.17726 7.3755 4.93348 8.13212C4.77776 8.61544 4.6999 8.8571 4.68509 8.88053C4.58444 9.03982 4.41556 9.03982 4.31491 8.88053C4.3001 8.8571 4.22224 8.61544 4.06652 8.13212C3.82274 7.3755 3.46237 6.55875 2.95181 6.04819C2.44125 5.53763 1.6245 5.17726 0.86788 4.93348C0.38456 4.77776 0.1429 4.6999 0.119471 4.68509C-0.0398236 4.58444 -0.0398236 4.41556 0.119471 4.31491C0.1429 4.3001 0.38456 4.22224 0.867879 4.06652C1.6245 3.82274 2.44125 3.46237 2.95181 2.95181C3.46237 2.44125 3.82274 1.6245 4.06652 0.86788Z" fill="#1A6CEF"/>
</g>
<defs>
<clipPath id="clip0_2875_216">
<rect width="24" height="24" fill="white"/>
</clipPath>
</defs>
</svg>

<svg width="24" height="24" viewBox="0 0 24 24" xmlns="http://www.w3.org/2000/svg">
  <g clip-path="url(#clip0_2875_216)">
    <path d="M13.037 5.929c.346-1.074.519-1.611.552-1.664.223-.353.599-.353.822 0 .033.053.206.59.552 1.664.542 1.681 1.343 3.496 2.477 4.63 1.135 1.135 2.95 1.936 4.631 2.478 1.074.346 1.611.519 1.663.552.354.223.354.599 0 .822-.052.033-.589.206-1.663.552-1.681.542-3.496 1.343-4.63 2.477-1.135 1.135-1.936 2.95-2.478 4.631-.346 1.074-.519 1.611-.552 1.663-.223.354-.599.354-.822 0-.033-.052-.206-.589-.552-1.663-.542-1.681-1.343-3.496-2.477-4.63-1.135-1.135-2.95-1.936-4.631-2.478-1.074-.346-1.611-.519-1.664-.552-.353-.223-.353-.599 0-.822.053-.033.59-.206 1.664-.552 1.681-.542 3.496-1.343 4.63-2.477 1.135-1.135 1.936-2.95 2.478-4.631M4.067.868c.155-.483.233-.725.248-.749.1-.159.27-.159.37 0 .015.024.093.266.248.749.244.757.605 1.573 1.115 2.084.51.51 1.327.87 2.084 1.115.483.155.725.233.749.248.159.1.159.27 0 .37-.024.015-.266.093-.749.248-.756.244-1.573.605-2.084 1.115-.51.51-.87 1.327-1.115 2.084-.155.483-.233.725-.248.749-.1.159-.27.159-.37 0a15 15 0 0 1-.248-.749c-.244-.756-.605-1.573-1.115-2.084-.51-.51-1.327-.87-2.084-1.115a15 15 0 0 1-.749-.248c-.159-.1-.159-.27 0-.37.024-.015.266-.093.749-.248.757-.244 1.573-.605 2.084-1.115.51-.51.87-1.327 1.115-2.084"/>
  </g>
</svg>
